static/img/kroki/9f031fc6348b9abd38ee3b801a145525.svg

<?xml version="1.0" encoding="us-ascii" standalone="no"?><svg xmlns="http://www.w3.org/2000/svg" xmlns:xlink="http://www.w3.org/1999/xlink" contentStyleType="text/css" height="535px" preserveAspectRatio="none" style="width:253px;height:535px;" version="1.1" viewBox="0 0 253 535" width="253px" zoomAndPan="magnify"><defs/><g><!--class microsoft_graph_device--><g id="elem_microsoft_graph_device"><rect codeLine="23" fill="#3D176E" height="39.7891" id="microsoft_graph_device" rx="2.5" ry="2.5" style="stroke:#000D19;stroke-width:0.5;" width="239" x="7" y="489.37"/><ellipse cx="22" cy="509.2645" fill="#ADD1B2" rx="11" ry="11" style="stroke:#181818;stroke-width:1.0;"/><path d="M24.9688,514.9052 Q24.3906,515.202 23.75,515.3427 Q23.1094,515.4989 22.4063,515.4989 Q19.9063,515.4989 18.5781,513.8583 Q17.2656,512.202 17.2656,509.077 Q17.2656,505.952 18.5781,504.2958 Q19.9063,502.6395 22.4063,502.6395 Q23.1094,502.6395 23.75,502.7958 Q24.4063,502.952 24.9688,503.2489 L24.9688,505.9677 Q24.3438,505.3895 23.75,505.1239 Q23.1563,504.8427 22.5313,504.8427 Q21.1875,504.8427 20.5,505.9208 Q19.8125,506.9833 19.8125,509.077 Q19.8125,511.1708 20.5,512.2489 Q21.1875,513.3114 22.5313,513.3114 Q23.1563,513.3114 23.75,513.0458 Q24.3438,512.7645 24.9688,512.1864 L24.9688,514.9052 Z " fill="#000000"/><text fill="#D9B8FF" font-family="Helvetica" font-size="17" lengthAdjust="spacing" textLength="197" x="41" y="515.1498">microsoft_graph_device</text></g><!--class microsoft_graph_entity--><g id="elem_microsoft_graph_entity"><rect codeLine="26" fill="#3D176E" height="39.7891" id="microsoft_graph_entity" rx="2.5" ry="2.5" style="stroke:#000D19;stroke-width:0.5;" width="236" x="8.5" y="328.58"/><ellipse cx="23.5" cy="348.4745" fill="#ADD1B2" rx="11" ry="11" style="stroke:#181818;stroke-width:1.0;"/><path d="M26.4688,354.1152 Q25.8906,354.412 25.25,354.5527 Q24.6094,354.7089 23.9063,354.7089 Q21.4063,354.7089 20.0781,353.0683 Q18.7656,351.412 18.7656,348.287 Q18.7656,345.162 20.0781,343.5058 Q21.4063,341.8495 23.9063,341.8495 Q24.6094,341.8495 25.25,342.0058 Q25.9063,342.162 26.4688,342.4589 L26.4688,345.1777 Q25.8438,344.5995 25.25,344.3339 Q24.6563,344.0527 24.0313,344.0527 Q22.6875,344.0527 22,345.1308 Q21.3125,346.1933 21.3125,348.287 Q21.3125,350.3808 22,351.4589 Q22.6875,352.5214 24.0313,352.5214 Q24.6563,352.5214 25.25,352.2558 Q25.8438,351.9745 26.4688,351.3964 L26.4688,354.1152 Z " fill="#000000"/><text fill="#D9B8FF" font-family="Helvetica" font-size="17" lengthAdjust="spacing" textLength="194" x="42.5" y="354.3598">microsoft_graph_entity</text></g><!--class microsoft_resource--><g id="elem_microsoft_resource"><rect codeLine="29" fill="#3D176E" height="39.7891" id="microsoft_resource" rx="2.5" ry="2.5" style="stroke:#000D19;stroke-width:0.5;" width="200" x="26.5" y="167.79"/><ellipse cx="41.5" cy="187.6845" fill="#ADD1B2" rx="11" ry="11" style="stroke:#181818;stroke-width:1.0;"/><path d="M44.4688,193.3252 Q43.8906,193.622 43.25,193.7627 Q42.6094,193.9189 41.9063,193.9189 Q39.4063,193.9189 38.0781,192.2783 Q36.7656,190.622 36.7656,187.497 Q36.7656,184.372 38.0781,182.7158 Q39.4063,181.0595 41.9063,181.0595 Q42.6094,181.0595 43.25,181.2158 Q43.9063,181.372 44.4688,181.6689 L44.4688,184.3877 Q43.8438,183.8095 43.25,183.5439 Q42.6563,183.2627 42.0313,183.2627 Q40.6875,183.2627 40,184.3408 Q39.3125,185.4033 39.3125,187.497 Q39.3125,189.5908 40,190.6689 Q40.6875,191.7314 42.0313,191.7314 Q42.6563,191.7314 43.25,191.4658 Q43.8438,191.1845 44.4688,190.6064 L44.4688,193.3252 Z " fill="#000000"/><text fill="#D9B8FF" font-family="Helvetica" font-size="17" lengthAdjust="spacing" textLength="158" x="60.5" y="193.5698">microsoft_resource</text></g><!--class resource--><g id="elem_resource"><rect codeLine="32" fill="#3D176E" height="39.7891" id="resource" rx="2.5" ry="2.5" style="stroke:#000D19;stroke-width:0.5;" width="113" x="70" y="7"/><ellipse cx="85" cy="26.8945" fill="#ADD1B2" rx="11" ry="11" style="stroke:#181818;stroke-width:1.0;"/><path d="M87.9688,32.5352 Q87.3906,32.832 86.75,32.9727 Q86.1094,33.1289 85.4063,33.1289 Q82.9063,33.1289 81.5781,31.4883 Q80.2656,29.832 80.2656,26.707 Q80.2656,23.582 81.5781,21.9258 Q82.9063,20.2695 85.4063,20.2695 Q86.1094,20.2695 86.75,20.4258 Q87.4063,20.582 87.9688,20.8789 L87.9688,23.5977 Q87.3438,23.0195 86.75,22.7539 Q86.1563,22.4727 85.5313,22.4727 Q84.1875,22.4727 83.5,23.5508 Q82.8125,24.6133 82.8125,26.707 Q82.8125,28.8008 83.5,29.8789 Q84.1875,30.9414 85.5313,30.9414 Q86.1563,30.9414 86.75,30.6758 Q87.3438,30.3945 87.9688,29.8164 L87.9688,32.5352 Z " fill="#000000"/><text fill="#D9B8FF" font-family="Helvetica" font-size="17" lengthAdjust="spacing" textLength="71" x="104" y="32.7798">resource</text></g><!--reverse link microsoft_graph_entity to microsoft_graph_device--><g id="link_microsoft_graph_entity_microsoft_graph_device"><path codeLine="35" d="M126.5,386.63 C126.5,417.15 126.5,458.48 126.5,489.04 " fill="none" id="microsoft_graph_entity-backto-microsoft_graph_device" style="stroke:#FFAF37;stroke-width:2.0;"/><polygon fill="none" points="126.5,368.63,120.5,386.63,132.5,386.63,126.5,368.63" style="stroke:#FFAF37;stroke-width:2.0;"/></g><!--reverse link microsoft_resource to microsoft_graph_entity--><g id="link_microsoft_resource_microsoft_graph_entity"><path codeLine="36" d="M126.5,225.84 C126.5,256.36 126.5,297.69 126.5,328.25 " fill="none" id="microsoft_resource-backto-microsoft_graph_entity" style="stroke:#FFAF37;stroke-width:2.0;"/><polygon fill="none" points="126.5,207.84,120.5,225.84,132.5,225.84,126.5,207.84" style="stroke:#FFAF37;stroke-width:2.0;"/></g><!--reverse link resource to microsoft_resource--><g id="link_resource_microsoft_resource"><path codeLine="37" d="M126.5,65.05 C126.5,95.57 126.5,136.9 126.5,167.47 " fill="none" id="resource-backto-microsoft_resource" style="stroke:#FFAF37;stroke-width:2.0;"/><polygon fill="none" points="126.5,47.05,120.5,65.05,132.5,65.05,126.5,47.05" style="stroke:#FFAF37;stroke-width:2.0;"/></g><!--SRC=[XPBBReCm44Nt_WfBMID1evOWTPCWLUqcgfhk8uF7O04s6fj4wUFV2wMf71x9TkwPEtT6aqiE5AhQdcW5LG9eY2cagXcoYguHzJ7MfKQw48A9PJWKdxIoDu4jgu0-Gta0ArCs9DvpcHOAZA5tZhHXQP6XRXJlxIqoPLe9b7Mek6J6hAr5cJGMd30yIbP23CcXwMB9W_01HfX63lY7-BxFWsY8t1nrTUz_OYS_W0RkqRRQmYZcQCGlTJLbHpWXHukUzTcChunpgJ9wxzJU-aoe02_gkvnnVUnemKhZZZ4M4BGzrH2Fje9enKKu2R_CmIJjJaShcQ8sMjXzXgpEznmECWNwISZt3D7-ZMn_V990CBh1o_xBsepRuvVdUJDXo8J_DD-RaLdgB90V]--></g></svg>

<svg xmlns="http://www.w3.org/2000/svg" width="253" height="535" viewBox="0 0 253 535"><rect width="239" height="39.789" x="7" y="489.37" fill="#3D176E" rx="2.5" ry="2.5" style="stroke:#000d19;stroke-width:.5"/><circle cx="22" cy="509.264" r="11" fill="#ADD1B2" style="stroke:#181818;stroke-width:1"/><path d="M24.969 514.905q-.578.297-1.219.438-.64.156-1.344.156-2.5 0-3.828-1.64-1.312-1.657-1.312-4.782t1.312-4.781q1.328-1.656 3.828-1.656.703 0 1.344.156.656.156 1.219.453v2.719q-.625-.579-1.219-.844-.594-.281-1.219-.281-1.343 0-2.031 1.078-.687 1.062-.687 3.156t.687 3.172q.688 1.062 2.031 1.062.625 0 1.219-.265.594-.282 1.219-.86z"/><text x="41" y="515.15" fill="#D9B8FF" font-family="Helvetica" font-size="17" textLength="197">microsoft_graph_device</text><rect width="236" height="39.789" x="8.5" y="328.58" fill="#3D176E" rx="2.5" ry="2.5" style="stroke:#000d19;stroke-width:.5"/><circle cx="23.5" cy="348.474" r="11" fill="#ADD1B2" style="stroke:#181818;stroke-width:1"/><path d="M26.469 354.115q-.578.297-1.219.438-.64.156-1.344.156-2.5 0-3.828-1.64-1.312-1.657-1.312-4.782t1.312-4.781q1.328-1.656 3.828-1.656.703 0 1.344.156.656.156 1.219.453v2.719q-.625-.579-1.219-.844-.594-.281-1.219-.281-1.343 0-2.031 1.078-.687 1.062-.687 3.156t.687 3.172q.688 1.062 2.031 1.062.625 0 1.219-.265.594-.281 1.219-.86z"/><text x="42.5" y="354.36" fill="#D9B8FF" font-family="Helvetica" font-size="17" textLength="194">microsoft_graph_entity</text><rect width="200" height="39.789" x="26.5" y="167.79" fill="#3D176E" rx="2.5" ry="2.5" style="stroke:#000d19;stroke-width:.5"/><circle cx="41.5" cy="187.685" r="11" fill="#ADD1B2" style="stroke:#181818;stroke-width:1"/><path d="M44.469 193.325q-.578.297-1.219.438-.64.156-1.344.156-2.5 0-3.828-1.64-1.312-1.657-1.312-4.782t1.312-4.781q1.328-1.656 3.828-1.656.703 0 1.344.156.656.156 1.219.453v2.719q-.625-.578-1.219-.844-.594-.281-1.219-.281-1.343 0-2.031 1.078-.687 1.062-.687 3.156t.687 3.172q.688 1.062 2.031 1.062.625 0 1.219-.265.594-.281 1.219-.86z"/><text x="60.5" y="193.57" fill="#D9B8FF" font-family="Helvetica" font-size="17" textLength="158">microsoft_resource</text><rect width="113" height="39.789" x="70" y="7" fill="#3D176E" rx="2.5" ry="2.5" style="stroke:#000d19;stroke-width:.5"/><circle cx="85" cy="26.895" r="11" fill="#ADD1B2" style="stroke:#181818;stroke-width:1"/><path d="M87.969 32.535q-.578.297-1.219.438-.64.156-1.344.156-2.5 0-3.828-1.64-1.312-1.657-1.312-4.782t1.312-4.781q1.328-1.656 3.828-1.656.703 0 1.344.156.656.156 1.219.453v2.719q-.625-.578-1.219-.844-.594-.281-1.219-.281-1.344 0-2.031 1.078-.687 1.062-.687 3.156t.687 3.172q.688 1.062 2.031 1.062.625 0 1.219-.265.594-.281 1.219-.86z"/><text x="104" y="32.78" fill="#D9B8FF" font-family="Helvetica" font-size="17" textLength="71">resource</text><path fill="none" d="M126.5 386.63v102.41m0-120.41-6 18h12zm0-142.79v102.41m0-120.41-6 18h12zm0-142.79v102.42m0-120.42-6 18h12z" style="stroke:#ffaf37;stroke-width:2"/></svg>
